X:108
T: HEINRICH SCHLIEF BEI SEINER NEUVERMAEHLTEN
N: B0138A
O: Europa, Mitteleuropa, Deutschland, Ober - Hessen
R: Ballade, Romanze
M: 4/4
L: 1/8
K: G
DD | G3GGBdB | BAA2z2
FG | A3BcAFD | B4z2
GG | e3dcBAG | FAd2z2
Ac | B2dedcBA | B2A2G2

